client/public/img/killfeed/sks_killfeed.svg

<?xml version="1.0" encoding="UTF-8" standalone="no"?>
<svg
   width="99.588776"
   height="16"
   viewBox="0 0 99.588776 16"
   fill="none"
   version="1.1"
   id="svg13"
   xmlns="http://www.w3.org/2000/svg"
   xmlns:svg="http://www.w3.org/2000/svg">
  <defs
     id="defs13" />
  <path
     d="M 51.285096,3.3534629 H 63.27392 V 1.7286445 C 63.27542,1.4264516 63.20502,1.3046984 62.837645,1.3046884 H 51.663874 c -0.265885,-0.00333 -0.388578,0.1057141 -0.382878,0.4239561 z"
     fill="#d9d9d9"
     id="path1"
     style="stroke-width:0.999944" />
  <path
     d="m 63.501307,1.3007087 c 0.0489,0.106134 0.0805,0.2245973 0.0827,0.4144266 v 1.1469653 h 7.480179 l -0.0024,2.4520418 h 1.863595 l 5e-4,-2.1348696 V 3.0638093 c 0.0036,-0.091485 -0.0429,-0.1822397 -0.105194,-0.2562056 L 72.13912,1.8038203 C 72.060425,1.6905267 71.941831,1.6635082 71.804539,1.667368 h -7.97585 c 0.0043,-0.2028686 -0.101795,-0.3520202 -0.327382,-0.3666593 z"
     fill="#d9d9d9"
     id="path2"
     style="stroke-width:0.999944" />
  <path
     d="m 63.581903,3.1795128 h 7.164496 v 2.1372595 h -7.162497 z"
     fill="#d9d9d9"
     id="path3"
     style="stroke-width:0.999944" />
  <path
     d="m 73.238558,3.1722232 7.189095,-0.00834 v 2.0364552 c -0.0292,0.037748 -0.0557,0.076396 -0.08209,0.1150935 h -7.1029 z"
     fill="#d9d9d9"
     id="path4"
     style="stroke-width:0.999944" />
  <path
     d="m 83.012907,3.1795128 h 3.852683 c 0.193589,5.899e-4 0.285084,0.1674105 0.284884,0.35412 v 1.4739669 c -0.0012,0.2505159 -0.163491,0.3126724 -0.510671,0.3125424 h -3.538601 c -0.0271,-0.043248 -0.0542,-0.081885 -0.0814,-0.1183134 z"
     fill="#d9d9d9"
     id="path5"
     style="stroke-width:0.999944" />
  <path
     d="m 84.56022,2.8611507 h 1.667006 V 0.3402128 c 0.003,-0.1726102 -0.0918,-0.30638571 -0.308983,-0.30896456 H 84.886702 C 84.676313,0.03302924 84.56092,0.1619529 84.55872,0.3592018 Z"
     fill="#d9d9d9"
     id="path6"
     style="stroke-width:0.999944" />
  <path
     d="m 80.740935,3.1500044 c 0.0015,-0.2243873 0.166191,-0.3155122 0.391978,-0.3142123 h 1.277428 c 0.194189,-0.00119 0.292984,0.1712104 0.290284,0.3577599 v 2.12806 c 0.792655,0.7952152 0.0216,1.8295769 -0.984245,1.8203074 -0.941447,0.00208 -1.801498,-0.8793505 -0.969645,-1.8348266 z"
     fill="#d9d9d9"
     id="path7"
     style="stroke-width:0.999944" />
  <path
     d="M 80.185167,5.6285847 H 63.489108 c -0.125193,0.1686305 -0.194189,0.2438862 -0.550169,0.3126424 l -4.820128,1.1135072 c 1.804698,0.1732702 3.758188,0.3323213 6.058058,0.2935634 L 74.506887,7.1594384 c 0.504071,0.00861 1.002643,-0.092645 1.515114,-0.2059984 h 0.500372 v 1.5321536 c 0.0015,0.1638708 0.0227,0.2294771 0.222188,0.2301771 h 0.583067 c 0.151691,-5.9e-4 0.211888,-0.035638 0.218087,-0.1809099 V 6.9500502 h 2.947434 C 80.29556,6.6835152 79.935081,6.2958271 80.185167,5.6285847 Z"
     fill="#d9d9d9"
     id="path8"
     style="stroke-width:0.999944" />
  <path
     d="m 43.965708,3.3552928 c -0.423476,0.00635 -0.423076,0.074546 -0.574767,0.3483704 -0.224687,0.3975876 -0.696361,0.4927522 -1.405221,0.513761 H 38.391623 L 37.215889,3.6484463 H 33.223914 C 30.301879,3.6990935 27.173055,3.6631755 25.016577,4.0345746 24.6088,4.0931712 24.479907,4.2316834 24.287718,4.435262 21.58387,6.8166877 19.056013,6.5304838 16.522856,5.7735765 15.7426,5.5577187 14.923746,5.498772 13.61052,5.6151154 L 0.31701902,6.3612734 c -0.26066928,0.010449 -0.38316437,0.159231 -0.28119112,0.5255704 1.1283134,3.7756672 0.9794918,6.0635382 1.0028104,8.7216882 0.00267,0.371579 0.1859996,0.470374 0.6076458,0.331381 L 15.651005,12.192525 c 0.424476,-0.127593 0.956546,-0.0015 1.139035,0.0684 1.411221,0.445875 2.513759,0.250986 3.278916,-0.626765 l 1.395821,-1.568411 c 0.856152,-1.0000641 1.813398,-1.6676264 4.278159,-1.6833456 h 0.693261 c -0.727459,0.9080886 -0.349281,2.9353746 0.953246,2.9396746 l 2.606353,0.0049 c 1.176334,-0.0049 1.835097,-0.539069 1.803598,-1.880994 l 2e-4,-1.0635896 h 4.425451 L 56.89098,7.0480647 63.002135,5.5994463 C 63.235822,5.5290603 63.26612,5.4083371 63.26632,5.2074984 L 63.26342,3.6630055 H 50.971114 V 3.3552828 Z M 28.599075,8.3748799 H 31.16553 V 9.817859 c -0.0041,0.330381 -0.274384,0.87625 -1.036342,0.88255 h -2.566555 c -0.993744,0.0062 -1.370923,-2.0017974 -0.0523,-2.3138698 h 0.287484 L 27.681723,9.094999 c -0.120193,0.554769 0.149992,1.027842 0.606666,1.442719 0.149492,0.117793 0.457674,-0.0757 0.278785,-0.281484 -0.573268,-0.636064 -0.618866,-0.961646 0.0319,-1.8813541 z"
     fill="#d9d9d9"
     id="path9"
     style="stroke-width:0.999944" />
  <path
     d="m 35.050711,8.6870123 h 0.636464 C 36.055754,9.320287 35.346494,9.378483 35.168504,9.073101 35.095204,8.9385481 35.074614,8.8101353 35.050711,8.6870123 Z"
     fill="#d9d9d9"
     id="path10"
     style="stroke-width:0.999944" />
  <path
     d="m 36.536027,8.673773 c 0.307283,0.3174521 0.209588,0.2786043 0.695961,0.2853439 l 0.475173,1.7695901 c 0.0591,0.18919 0.197389,0.326582 0.609766,0.153991 l 3.615096,-1.337524 0.36338,-0.481363 1.849595,-0.8806803 z"
     fill="#d9d9d9"
     id="path11"
     style="stroke-width:0.999944" />
  <path
     d="M 24.378013,3.9394599 V 2.1046334 c 0.0024,-0.2871939 0.151791,-0.3524402 0.449974,-0.3570899 l 17.114436,0.00517 c 0.385578,-0.3132623 0.806354,-0.2043985 1.06374,0.00359 h 1.262928 c 0.170891,0.00347 0.298084,0.160071 0.300783,0.2641551 v 0.2177377 h 0.508072 v -0.789676 c -0.0122,-0.194019 0.09579,-0.2340168 0.271484,-0.1567811 l 0.573368,0.2583954 0.378479,-0.036328 v -0.030278 l -0.271485,-0.00148 c -0.0579,-0.00179 -0.09249,-0.022929 -0.115793,-0.044657 L 45.568918,1.0848108 C 45.438825,0.92321 45.655918,0.7562094 45.799405,0.868743 l 0.291984,0.2971533 0.213988,0.00267 V 1.0151148 c 0.0047,-0.084445 0.0414,-0.1578611 0.154991,-0.1590911 l 0.977745,0.012309 c 0.107794,0.0068 0.143292,0.081265 0.140592,0.1493516 l -0.0021,0.1637108 0.855052,0.00874 c 0.0073,-0.010809 0.0435,-0.021089 0.0811,-0.020549 h 0.140592 c 0.156391,-0.1999188 0.422376,-0.2036086 0.591267,0 h 0.447975 c 0.293883,-0.2708548 0.587366,-0.160031 0.758057,0.069286 0.0239,0.034728 0.028,0.060866 0.0287,0.1041841 v 0.3885081 h 0.258186 c 0.0469,-0.094495 0.123593,-0.1554313 0.236086,-0.1760401 V 3.0407906 H 43.93231 C 43.388541,3.0258814 43.324045,3.2274301 43.173153,3.4523874 42.943466,3.884933 42.51369,3.8878128 41.98352,3.903072 L 38.467318,3.897512 37.285685,3.329224 C 30.897445,3.302705 25.109471,3.377271 24.378013,3.9394599 Z"
     fill="#d9d9d9"
     id="path12"
     style="stroke-width:0.999944" />
  <path
     d="M 88.608792,4.6026625 88.161117,4.2492225 88.498798,3.7544003 88.062922,3.1554941 99.000106,0 94.303171,3.3302543 99.588777,3.9743179 94.515259,4.9089853 97.947665,7.9879117 88.11202,5.4705736 Z"
     fill="#d9d9d9"
     id="path13"
     style="stroke-width:0.999944" />
</svg>

<svg xmlns="http://www.w3.org/2000/svg" width="99.589" height="16" fill="none"><path fill="#d9d9d9" d="M51.285 3.353h11.989V1.73c.001-.303-.069-.424-.436-.424H51.664c-.266-.004-.389.105-.383.424zM63.501 1.3c.05.107.08.225.083.415v1.147h7.48l-.002 2.452h1.863v-2.25a.4.4 0 0 0-.104-.256l-.682-1.004c-.079-.113-.197-.14-.334-.137h-7.976c.004-.203-.102-.352-.328-.366" style="stroke-width:.999944"/><path fill="#d9d9d9" d="M63.582 3.18h7.164v2.137h-7.162zm9.657-.008 7.189-.008V5.2q-.044.058-.082.115h-7.103zm9.774.008h3.853c.193 0 .285.167.284.354v1.474c0 .25-.163.312-.51.312H83.1a2 2 0 0 0-.081-.118zm1.547-.319h1.667V.341c.003-.173-.092-.307-.309-.31h-1.031c-.21.002-.326.131-.328.328Z" style="stroke-width:.999944"/><path fill="#d9d9d9" d="M80.74 3.15c.002-.224.167-.316.393-.314h1.277c.195-.001.293.171.29.358v2.128c.793.795.022 1.83-.984 1.82-.941.002-1.801-.88-.97-1.835z" style="stroke-width:.999944"/><path fill="#d9d9d9" d="M80.185 5.629H63.49c-.125.168-.194.243-.55.312l-4.82 1.114c1.805.173 3.758.332 6.058.293l10.33-.189c.504.009 1.003-.092 1.515-.206h.5v1.533c.002.163.023.23.223.23h.583c.151 0 .212-.036.218-.181V6.95h2.947c-.197-.266-.558-.654-.308-1.321m-36.22-2.274c-.424.007-.423.075-.575.349-.225.397-.696.492-1.405.513h-3.594l-1.176-.569h-3.992c-2.922.051-6.05.015-8.207.387-.408.058-.537.197-.73.4-2.703 2.382-5.231 2.095-7.764 1.339-.78-.216-1.6-.275-2.912-.159L.317 6.361c-.26.01-.383.16-.281.526 1.128 3.776.98 6.063 1.003 8.722.002.371.186.47.607.33l14.005-3.746c.424-.128.957-.002 1.139.068 1.411.446 2.514.25 3.279-.627l1.396-1.568c.856-1 1.813-1.668 4.278-1.684h.693c-.727.908-.35 2.936.953 2.94l2.607.005c1.176-.005 1.835-.54 1.803-1.881V8.382h4.426l20.666-1.334L63.002 5.6c.234-.07.264-.19.264-.392l-.003-1.544H50.971v-.308Zm-15.367 5.02h2.567v1.443c-.005.33-.275.876-1.037.882h-2.566c-.994.007-1.371-2.001-.053-2.313h.288l-.116.708c-.12.555.15 1.028.606 1.443.15.118.458-.076.28-.282-.574-.636-.62-.961.031-1.881" style="stroke-width:.999944"/><path fill="#d9d9d9" d="M35.05 8.687h.637c.369.633-.34.691-.518.386-.074-.134-.094-.263-.118-.386m1.485-.013c.307.317.21.278.696.285l.475 1.77c.06.189.198.326.61.154l3.615-1.338.363-.481 1.85-.88zM24.378 3.94V2.104c.002-.288.152-.353.45-.357l17.114.005c.386-.314.807-.205 1.064.003h1.263c.171.004.298.16.3.264v.218h.509v-.79c-.012-.193.096-.233.271-.156l.574.258.378-.036v-.03l-.271-.002a.17.17 0 0 1-.116-.045l-.345-.352c-.13-.162.087-.329.23-.216l.292.297.214.003v-.154c.005-.084.042-.158.155-.159l.978.012c.108.007.143.082.14.15l-.001.163.855.01c.007-.012.043-.022.08-.021h.141c.157-.2.423-.204.592 0h.448c.293-.271.587-.16.758.069.024.035.028.06.028.104v.389h.259a.31.31 0 0 1 .236-.176V3.04h-7.042c-.543-.015-.608.186-.759.411-.23.433-.66.436-1.19.451l-3.516-.005-1.181-.569c-6.389-.026-12.177.048-12.908.61m64.231.665-.448-.354.338-.495-.436-.599L99 0l-4.697 3.33 5.286.644-5.074.935 3.433 3.079-9.836-2.517Z" style="stroke-width:.999944"/></svg>
